X: 8323
T: Cosán Na Guagóige
R: slip jig
M: 9/8
K: Dmajor
A2dB2AF2G|A2dc2df3|A2dB2AF2G|f2ed2cB3|
A2dB2AF2G|A2dc2df2a|b2ge2cA2c|d2Af2ed3:|
|:A2df2ad'2c'|b2gg2fg3|A2ce2ga2g|g2ff2ef3|
A2df2ad'2c'|b2gg2fg3|ABea2ec'2a|d2Af2ed3:|

